X:1
T:Vandresang
T:Vandresang
T:Bind 1, No. 19
T:Carl Maria von Weber
T:P. A. Wolf
C:C. M. Weber
Z:P. A. Wolf
%%score [ 1 2 3 4 ]
L:1/8
Q:1/4=114
M:4/4
K:Eb
V:1 treble-8 nm="T1"
V:2 treble-8 nm="T2"
V:3 bass nm="B1"
V:4 bass nm="B2"
V:1
"^Moderato" z z2 | z4 z!f!!<(! B d3/2 f/!<)! | g4 z2 B2 | F2 F3/2 F/ E2 G3/2 G/ | B4 z4 | %5
w: |til Dal og|Fjeld ned-|straa- ler nu Mor- gen- nens|Glans.|
w: |vi gaa vor|Gang, ej|spør- ge vi hve- den, ej|hvor,|
 z4 z2!mf! E2 |!<(! A3 c!<)! e z!f! e2 | (!>!e2 G)!>(! G (B2!>)! F3/2) F/ | G4 z |] %9
w: O,|Sko- vens Duft! O,|gyld- * ne Straa- * le-|krans!|
w: og|hvor vi er, der|fri- hed og Mun- ter- hed|bor!|
V:2
 z z2 | z4 z!f!!<(! B B3/2 d/!<)! | e4 z2 G2 | F2 F3/2 F/ E2 G3/2 G/ | B4 z4 | z4 z2!mf! E2 | %6
w: |til Dal og|Fjeld ned-|straa- ler nu Mor- gen- nens|Glans.|O,|
w: |vi gaa vor|Gang, ej|spør- ge vi hve- den, ej|hvor,|og|
!<(! E3 A!<)! c z!f! c2 | (!>!B2 G)!>(! G F2-!>)! F3/2 F/ | G4 z |] %9
w: Sko- vens Duft! O,|gyld- * ne Straa- * le-|krans!|
w: hvor vi er, der|fri- hed og Mun- ter- hed|bor!|
V:3
!f! E, G,3/2 A,/ | B,4 z!<(! B, B,3/2 B,/!<)! | B,4 z2 E,2 | D,2 F,3/2 D,/ E,2 E,3/2 E,/ | %4
w: 1.Fra Ø- stens|Væld til Dal og|Fjeld ned-|straa- ler nu Mor- gen- nens|
w: 2.Med ly- stig|Sang vi gaa vor|Gang, ej|spør- ge vi hve- den, ej|
 F,4 z2!mf! B,,2 | E,3 G, B, z E,2 |!<(! C,3 E,!<)! A, z!f! A,2 | %7
w: Glans. O,|sva- le Luft! O,|Sko- vens Duft! O,|
w: hvor, Snart|hist, snart her, og|hvor vi er, der|
 (!>!G,2 E,)!>(! E, D,2-!>)! D,3/2 D,/ | E,4 z |] %9
w: gyld- * ne Straa- * le-|krans!|
w: fri- hed og Mun- ter- hed|bor!|
V:4
!f! E, G,3/2 A,/ | B,4 z!<(! B, B,3/2 B,/!<)! | E,4 z2 E,2 | B,,2 D,3/2 B,,/ E,2 E,3/2 E,/ | %4
w: 1.Fra Ø- stens|Væld til Dal og|Fjeld ned-|straa- ler nu Mor- gen- nens|
w: 2.Med ly- stig|Sang vi gaa vor|Gang, ej|spør- ge vi hve- den, ej|
 B,,4 z2!mf! B,,2 | E,3 G, B, z E,2 |!<(! A,,3 A,,!<)! A,, z!f! A,,2 | %7
w: Glans. O,|sva- le Luft! O,|Sko- vens Duft! O,|
w: hvor, Snart|hist, snart her, og|hvor vi er, der|
 (!>!B,,2 B,,)!>(! B,, B,,2-!>)! B,,3/2 B,,/ | E,4 z |] %9
w: gyld- * ne Straa- * le-|krans!|
w: fri- hed og Mun- ter- hed|bor!|

